source/img/cause-02.svg

<svg width="64" height="65" viewBox="0 0 64 65" fill="none" xmlns="http://www.w3.org/2000/svg">
<path d="M64 32.71C64 64.71 64 64.71 32 64.71C0 64.71 0 64.71 0 32.71C0 0.709961 0 0.709961 32 0.709961C64 0.709961 64 0.709961 64 32.71Z" fill="#F7B519"/>
<path fill-rule="evenodd" clip-rule="evenodd" d="M27.2249 26.8681C27.2249 27.4449 26.7596 27.9131 26.1863 27.9131C25.613 27.9131 25.1478 27.4449 25.1478 26.8681C25.1478 23.0658 28.2219 19.9741 32.0007 19.9741C35.7783 19.9741 38.8523 23.0658 38.8523 26.8681C38.8523 30.6704 35.7783 33.7621 32.0007 33.7621C30.454 33.7621 28.9959 33.2619 27.7857 32.3144C27.3329 31.9605 27.2512 31.3043 27.6029 30.8487C27.9532 30.3917 28.6082 30.3109 29.061 30.6662C29.9029 31.3238 30.9193 31.6721 32.0007 31.6721C34.6345 31.6721 36.7752 29.5167 36.7752 26.8681C36.7752 24.2195 34.6345 22.064 32.0007 22.064C29.367 22.064 27.2249 24.2195 27.2249 26.8681ZM24.5311 31.2089C24.5311 31.7858 24.0658 32.2539 23.4925 32.2539C20.5029 32.2539 18.07 29.8073 18.07 26.7992C18.07 23.7911 20.5029 21.3431 23.4925 21.3431C24.0658 21.3431 24.5311 21.8113 24.5311 22.3881C24.5311 22.9649 24.0658 23.433 23.4925 23.433C21.6481 23.433 20.1471 24.9434 20.1471 26.7992C20.1471 28.6551 21.6481 30.164 23.4925 30.164C24.0658 30.164 24.5311 30.6321 24.5311 31.2089ZM21.5467 37.0442C20.8793 37.0888 20.2091 37.1877 19.5541 37.3354C18.5488 37.5346 17.8578 37.8746 17.6792 38.2508C17.5449 38.5364 17.5449 38.8666 17.6792 39.1522C17.765 39.332 18.114 39.7792 19.5361 40.0732C20.0983 40.1888 20.4597 40.7406 20.3448 41.3062C20.2451 41.8009 19.8117 42.1408 19.3284 42.1408C19.2592 42.1408 19.1899 42.1338 19.1193 42.1199C17.4009 41.766 16.2862 41.0694 15.8043 40.0495C15.3986 39.1926 15.3986 38.2104 15.8043 37.3535C16.2917 36.3239 17.4092 35.6286 19.1262 35.2886C19.8587 35.1242 20.6356 35.0114 21.4069 34.9598C21.9607 34.9166 22.4745 35.3555 22.5132 35.931C22.552 36.5078 22.12 37.0066 21.5467 37.0442ZM40.5249 30.1989C39.9516 30.1989 39.4864 30.6671 39.4864 31.2439C39.4864 31.8207 39.9516 32.2888 40.5249 32.2888C43.5076 32.2888 45.935 29.8464 45.935 26.8453C45.935 23.8428 43.5076 21.4017 40.5249 21.4017C39.9516 21.4017 39.4864 21.8685 39.4864 22.4467C39.4864 23.0235 39.9516 23.4917 40.5249 23.4917C42.3624 23.4917 43.8579 24.9964 43.8579 26.8453C43.8579 28.6942 42.3624 30.1989 40.5249 30.1989ZM44.9043 35.3144C46.595 35.6515 47.7097 36.344 48.1957 37.3681C48.6014 38.2249 48.6014 39.2058 48.1957 40.0627C47.7152 41.0784 46.6033 41.7736 44.8876 42.1289C44.8184 42.1442 44.7478 42.1512 44.6772 42.1512C44.1953 42.1512 43.7632 41.8099 43.6622 41.3166C43.5472 40.751 43.9086 40.1978 44.4708 40.0822C45.8874 39.7882 46.2363 39.3423 46.3208 39.164C46.4551 38.8798 46.4551 38.5524 46.3208 38.2681C46.1436 37.8933 45.4554 37.5548 44.4778 37.3597C43.7979 37.2092 43.1277 37.1103 42.4658 37.0657C41.8925 37.0281 41.4605 36.5279 41.4992 35.9525C41.5366 35.3771 42.0365 34.9507 42.6042 34.9814C43.3728 35.0329 44.1454 35.1458 44.9043 35.3144ZM32.0003 35.9244C29.4995 35.9244 21.8905 35.9244 21.8905 40.7215C21.8905 41.8041 22.3142 43.3032 24.3332 44.2994C24.9535 44.6032 25.704 44.8512 26.5653 45.0365C27.1234 45.1619 27.6772 44.7968 27.7963 44.2325C27.9168 43.6683 27.5582 43.1123 26.9974 42.9925C26.3022 42.8434 25.7123 42.6512 25.2471 42.4213C24.113 41.8626 23.9676 41.2203 23.9676 40.7215C23.9676 38.4839 28.3364 38.0143 32.0003 38.0143C37.3315 38.0143 40.0331 38.9158 40.0331 40.6964C40.0331 42.9326 35.6643 43.4021 32.0003 43.4021C31.4271 43.4021 30.9618 43.8703 30.9618 44.4471C30.9618 45.0239 31.4271 45.4921 32.0003 45.4921C34.5011 45.4921 42.1101 45.4921 42.1101 40.6964C42.1101 35.9244 34.7656 35.9244 32.0003 35.9244Z" fill="#343A41"/>
</svg>

<svg width="64" height="65" fill="none" xmlns="http://www.w3.org/2000/svg"><path d="M64 32.71c0 32 0 32-32 32s-32 0-32-32 0-32 32-32 32 0 32 32z" fill="#F7B519"/><path fill-rule="evenodd" clip-rule="evenodd" d="M27.225 26.868c0 .577-.465 1.045-1.039 1.045a1.042 1.042 0 01-1.038-1.045c0-3.802 3.074-6.894 6.853-6.894 3.777 0 6.851 3.092 6.851 6.894s-3.074 6.894-6.851 6.894a6.77 6.77 0 01-4.215-1.448 1.049 1.049 0 01-.183-1.465 1.033 1.033 0 011.458-.183 4.73 4.73 0 002.94 1.006c2.634 0 4.774-2.155 4.774-4.804 0-2.648-2.14-4.804-4.774-4.804s-4.776 2.155-4.776 4.804zm-2.694 4.34c0 .578-.465 1.046-1.038 1.046-2.99 0-5.423-2.447-5.423-5.455s2.433-5.456 5.422-5.456c.574 0 1.04.468 1.04 1.045s-.466 1.045-1.04 1.045c-1.844 0-3.345 1.51-3.345 3.366s1.501 3.365 3.346 3.365c.573 0 1.038.468 1.038 1.045zm-2.984 5.836a13.04 13.04 0 00-1.993.291c-1.005.2-1.696.54-1.875.916a1.059 1.059 0 000 .901c.086.18.435.627 1.857.921.562.116.924.668.809 1.233a1.039 1.039 0 01-1.226.814c-1.718-.354-2.833-1.05-3.315-2.07a3.138 3.138 0 010-2.697c.488-1.03 1.605-1.724 3.322-2.064.733-.165 1.51-.278 2.28-.33a1.048 1.048 0 011.107.972 1.041 1.041 0 01-.966 1.113zM40.525 30.2c-.573 0-1.039.468-1.039 1.045s.466 1.045 1.039 1.045c2.983 0 5.41-2.443 5.41-5.444 0-3.002-2.427-5.443-5.41-5.443-.573 0-1.039.466-1.039 1.045 0 .576.466 1.045 1.039 1.045 1.837 0 3.333 1.504 3.333 3.353 0 1.85-1.496 3.354-3.333 3.354zm4.38 5.115c1.69.337 2.805 1.03 3.29 2.054a3.135 3.135 0 010 2.695c-.48 1.015-1.592 1.71-3.307 2.066a1.04 1.04 0 01-1.225-.812 1.045 1.045 0 01.808-1.235c1.416-.294 1.765-.74 1.85-.918a1.046 1.046 0 000-.896c-.177-.375-.866-.713-1.843-.908-.68-.15-1.35-.25-2.012-.294a1.042 1.042 0 01-.967-1.114 1.047 1.047 0 011.105-.97c.769.05 1.541.164 2.3.332zM32 35.924c-2.5 0-10.11 0-10.11 4.797 0 1.083.424 2.582 2.443 3.578.62.304 1.371.552 2.232.737a1.035 1.035 0 001.231-.803 1.044 1.044 0 00-.799-1.24c-.695-.15-1.285-.342-1.75-.572-1.134-.558-1.28-1.2-1.28-1.7 0-2.237 4.37-2.707 8.033-2.707 5.331 0 8.033.902 8.033 2.682 0 2.237-4.369 2.706-8.033 2.706-.573 0-1.038.468-1.038 1.045s.465 1.045 1.038 1.045c2.501 0 10.11 0 10.11-4.796 0-4.772-7.344-4.772-10.11-4.772z" fill="#343A41"/></svg>
